X: 1118
T: The Shoe-maker, a Scotch Tune
%R: march, reel
B: Henry Playford "Apollo's Banquet", London 1687 (5th Edition)
F: https://archive.org/details/apollosbanquetco01rugg
Z: 2017 John Chambers <jc:trillian.mit.edu>
M: C|
L: 1/8
K: G
% - - - - - - - - - -
D |\
(EG3) (AB3) | g3B A3G |\
(ED)(EG) (AB)(de) | (dB)AG G3 :: g |\
e4 e2de | f4 f3g |
e4 e2de | g3a g2d2 |\
g2e2 d2e2 | f3g a3g/a/ |\
(ba)(gf) (ge)(dB) | A>BA>G G3 |]
% - - - - - - - - - -

%%sep 1 1 500
%%sep 1 1 500

